svgs/sharp-regular/file-invoice.svg

<svg xmlns="http://www.w3.org/2000/svg" viewBox="0 0 384 512"><!--! Font Awesome Pro 6.6.0 by @fontawesome - https://fontawesome.com License - https://fontawesome.com/license (Commercial License) Copyright 2024 Fonticons, Inc. --><path d="M48 464l288 0 0-304-112 0 0-112L48 48l0 416zM48 0L256 0 384 128l0 336 0 48-48 0L48 512 0 512l0-48L0 48 0 0 48 0zM80 96l16 0 80 0 16 0 0 32-16 0-80 0-16 0 0-32zm0 64l16 0 80 0 16 0 0 32-16 0-80 0-16 0 0-32zM192 384l16 0 80 0 16 0 0 32-16 0-80 0-16 0 0-32zM304 224l0 128L80 352l0-128 224 0z"/></svg>

<svg xmlns="http://www.w3.org/2000/svg" viewBox="0 0 384 512"><!--! Font Awesome Pro 6.4.0 by @fontawesome - https://fontawesome.com License - https://fontawesome.com/license (Commercial License) Copyright 2023 Fonticons, Inc. --><path d="M48 464H336V160H224V48H48V464zM48 0H256L384 128V464v48H336 48 0V464 48 0H48zM80 96H96h80 16v32H176 96 80V96zm0 64H96h80 16v32H176 96 80V160zM192 384h16 80 16v32H288 208 192V384zM304 224V352H80V224H304z"/></svg>
